X:89
T:The Stack of Barley
N:Hornpipe   Allan's  # 89   pp22
N:Trad/Anon
N:CONVERTED FROM NOTEWORTHY COMPOSER  (WWW.NOTEWORTHYSOFTWARE.COM) BY
N:ABC2NWC (HTTP://MEMBERS.AOL.COM/ABACUSMUSIC/), WITH
Z: (INTO NWC) VINCE BRENNAN 2002   (WWW.SOSYOURMOM.COM)
I:abc2nwc
M:4/4
L:1/8
K:G
(g3/2f/2)|e3/2f/2e3/2d/2 B3/2c/2d3/2B/2|A3/2B/2A3/2G/2 A3/2c/2B3/2A/2|G3/2F/2G3/2A/2 B3/2A/2  ((3Bcd)|e2A2A2(B3/2d/2)|
e3/2f/2e3/2d/2 B3/2c/2d3/2B/2|A3/2G/2E3/2G/2 A3/2c/2B3/2A/2|G3/2F/2G3/2A/2 B3/2d/2A3/2c/2|B2G2G2:|
|:(d3/2c/2)|B3/2G/2B3/2d/2 g2(f3/2g/2)|a3/2g/2f3/2g/2 e2 ((3def)|g3/2f/2e3/2d/2 B3/2A/2  ((3Bcd)|.e2.A2.A2f3/2g/2|
a3/2g/2f3/2a/2 g2(f3/2e/2)|d3/2B/2A3/2G/2 A3/2c/2B3/2A/2|G3/2F/2G3/2A/2  ((3Bcd) A3/2c/2|.B2.G2.G2:|
